src/images_karasa_jaga_svg/cmd/sc_basicshapes.paper.svg

<svg height="16" viewBox="0 0 16 16" width="16" xmlns="http://www.w3.org/2000/svg" xmlns:xlink="http://www.w3.org/1999/xlink"><linearGradient id="a"><stop offset="0" stop-color="#7c9fcf"/><stop offset=".5" stop-color="#7c9ece"/><stop offset="1" stop-color="#7b9dcf"/></linearGradient><linearGradient id="b" gradientUnits="userSpaceOnUse" x1="64" x2="64" y1="128" y2="0"><stop offset="0" stop-color="#fff"/><stop offset=".53125" stop-color="#fff"/><stop offset=".82421875" stop-color="#f1f1f1"/><stop offset=".90234375" stop-color="#eaeaea"/><stop offset="1" stop-color="#dfdfdf"/></linearGradient><linearGradient id="c" gradientUnits="userSpaceOnUse" x1="8.003906" x2="119.99609" xlink:href="#a" y1="63.999996" y2="63.999996"/><linearGradient id="d" gradientUnits="userSpaceOnUse" x1="56.005859" x2="119.99294" xlink:href="#a" y1="91.99971" y2="91.99971"/><g transform="scale(.125)"><path d="m16 8.0039062a7.9962834 7.9962834 0 0 0 -7.9960938 7.9960938v96a7.9962834 7.9962834 0 0 0 7.9960938 7.99609h48a7.9962834 7.9962834 0 0 0 5.119141-1.85351l47.999999-40.000002a7.9962834 7.9962834 0 0 0 2.87695-6.142578v-56a7.9962834 7.9962834 0 0 0 -7.99609-7.9960938z" fill="url(#c)"/><path d="m16 16h96v56l-48 40h-48z" fill="url(#b)"/><path d="m64 64.005859a7.9954131 7.9954131 0 0 0 -7.994141 7.994141v40a7.9954131 7.9954131 0 0 0 13.111329 6.14258l48.000002-40.000002a7.9954131 7.9954131 0 0 0 -5.11719-14.136719z" fill="url(#d)"/><path d="m64 72h48l-48 40z" fill="#fff"/></g></svg>

<?xml version="1.0" encoding="UTF-8" standalone="no"?>
<svg
   xmlns:dc="http://purl.org/dc/elements/1.1/"
   xmlns:cc="http://creativecommons.org/ns#"
   xmlns:rdf="http://www.w3.org/1999/02/22-rdf-syntax-ns#"
   xmlns:svg="http://www.w3.org/2000/svg"
   xmlns="http://www.w3.org/2000/svg"
   xmlns:xlink="http://www.w3.org/1999/xlink"
   xmlns:sodipodi="http://sodipodi.sourceforge.net/DTD/sodipodi-0.dtd"
   xmlns:inkscape="http://www.inkscape.org/namespaces/inkscape"
   height="128"
   viewBox="0 0 128 128"
   width="128"
   version="1.1"
   id="svg31"
   sodipodi:docname="sc_basicshapes.paper.svg"
   inkscape:version="0.92.3 (unknown)"
   inkscape:export-filename="/home/rizmut/Dokumen/Rizmut/Github/libreoffice-style-karasa-jaga/build/images_karasa_jaga/cmd/sc_basicshapes.paper.png"
   inkscape:export-xdpi="12"
   inkscape:export-ydpi="12">
  <metadata
     id="metadata37">
    <rdf:RDF>
      <cc:Work
         rdf:about="">
        <dc:format>image/svg+xml</dc:format>
        <dc:type
           rdf:resource="http://purl.org/dc/dcmitype/StillImage" />
        <dc:title></dc:title>
      </cc:Work>
    </rdf:RDF>
  </metadata>
  <defs
     id="defs35">
    <linearGradient
       id="linearGradient3369">
      <stop
         id="stop3372"
         offset="0"
         style="stop-color:#ffffff;stop-opacity:1;" />
      <stop
         style="stop-color:#ffffff;stop-opacity:1;"
         offset="0.53125"
         id="stop3374" />
      <stop
         style="stop-color:#f1f1f1;stop-opacity:1;"
         offset="0.82421875"
         id="stop3376" />
      <stop
         id="stop3378"
         offset="0.90234375"
         style="stop-color:#eaeaea;stop-opacity:1;" />
      <stop
         id="stop3384"
         offset="1"
         style="stop-color:#dfdfdf;stop-opacity:1;" />
    </linearGradient>
    <linearGradient
       id="linearGradient7422">
      <stop
         style="stop-color:#7c9fcf;stop-opacity:1"
         offset="0"
         id="stop7424" />
      <stop
         id="stop5348"
         offset="0.5"
         style="stop-color:#7c9ece;stop-opacity:1" />
      <stop
         id="stop7426"
         offset="1"
         style="stop-color:#7b9dcf;stop-opacity:1" />
    </linearGradient>
    <linearGradient
       inkscape:collect="always"
       xlink:href="#linearGradient3369"
       id="linearGradient1360"
       x1="64"
       y1="128"
       x2="64"
       y2="0"
       gradientUnits="userSpaceOnUse" />
    <linearGradient
       inkscape:collect="always"
       xlink:href="#linearGradient7422"
       id="linearGradient852"
       x1="8.0039062"
       y1="63.999996"
       x2="119.99609"
       y2="63.999996"
       gradientUnits="userSpaceOnUse" />
    <linearGradient
       inkscape:collect="always"
       xlink:href="#linearGradient7422"
       id="linearGradient860"
       x1="56.005859"
       y1="91.99971"
       x2="119.99294"
       y2="91.99971"
       gradientUnits="userSpaceOnUse" />
  </defs>
  <sodipodi:namedview
     pagecolor="#ffffff"
     bordercolor="#666666"
     borderopacity="1"
     objecttolerance="10"
     gridtolerance="10"
     guidetolerance="10"
     inkscape:pageopacity="0"
     inkscape:pageshadow="2"
     inkscape:window-width="1366"
     inkscape:window-height="706"
     id="namedview33"
     showgrid="true"
     inkscape:zoom="2.0000001"
     inkscape:cx="66.717382"
     inkscape:cy="66.166835"
     inkscape:window-x="0"
     inkscape:window-y="0"
     inkscape:window-maximized="1"
     inkscape:current-layer="svg31"
     inkscape:snap-global="false">
    <inkscape:grid
       type="xygrid"
       id="grid844"
       spacingx="8"
       spacingy="8"
       empspacing="2" />
  </sodipodi:namedview>
  <linearGradient
     id="a">
    <stop
       offset="0"
       stop-color="#f9f9fa"
       id="stop2" />
    <stop
       offset="1"
       stop-color="#f9f9fa"
       stop-opacity="0"
       id="stop4" />
  </linearGradient>
  <linearGradient
     id="b"
     gradientUnits="userSpaceOnUse"
     x1="42.276669"
     x2="-13.469376"
     xlink:href="#a"
     y1="50.867565"
     y2="104.97279" />
  <linearGradient
     id="c"
     gradientUnits="userSpaceOnUse"
     x1="-1.817377"
     x2="2.172436"
     xlink:href="#a"
     y1="55.003803"
     y2="116.784" />
  <path
     sodipodi:type="inkscape:offset"
     inkscape:radius="7.9954839"
     inkscape:original="M 16 16 L 16 112 L 64 112 L 112 72 L 112 16 L 16 16 z "
     style="opacity:1;fill:url(#linearGradient852);fill-opacity:1.0;stroke:none;stroke-width:4;stroke-linecap:square;stroke-linejoin:bevel;stroke-miterlimit:4;stroke-dasharray:none;stroke-dashoffset:0;stroke-opacity:1"
     id="path837"
     d="M 16,8.0039062 A 7.9962834,7.9962834 0 0 0 8.0039062,16 v 96 A 7.9962834,7.9962834 0 0 0 16,119.99609 h 48 a 7.9962834,7.9962834 0 0 0 5.119141,-1.85351 L 117.11914,78.142578 A 7.9962834,7.9962834 0 0 0 119.99609,72 V 16 A 7.9962834,7.9962834 0 0 0 112,8.0039062 Z" />
  <path
     style="opacity:1;fill:url(#linearGradient1360);fill-opacity:1;stroke:none;stroke-width:4;stroke-linecap:square;stroke-linejoin:bevel;stroke-miterlimit:4;stroke-dasharray:none;stroke-dashoffset:0;stroke-opacity:1"
     d="m 16,16 h 96 V 72 L 64,112 H 16 Z"
     id="rect1001"
     inkscape:connector-curvature="0"
     sodipodi:nodetypes="cccccc" />
  <path
     sodipodi:type="inkscape:offset"
     inkscape:radius="7.9946136"
     inkscape:original="M 64 72 L 64 112 L 112 72 L 64 72 z "
     style="opacity:1;fill:url(#linearGradient860);fill-opacity:1.0;stroke:none;stroke-width:4;stroke-linecap:square;stroke-linejoin:bevel;stroke-miterlimit:4;stroke-dasharray:none;stroke-dashoffset:0;stroke-opacity:1"
     id="path842"
     d="M 64,64.005859 A 7.9954131,7.9954131 0 0 0 56.005859,72 v 40 a 7.9954131,7.9954131 0 0 0 13.111329,6.14258 L 117.11719,78.142578 A 7.9954131,7.9954131 0 0 0 112,64.005859 Z" />
  <path
     sodipodi:nodetypes="cccc"
     inkscape:connector-curvature="0"
     id="path1004"
     d="m 64,72 h 48 l -48,40 z"
     style="opacity:1;fill:#ffffff;fill-opacity:1;stroke:none;stroke-width:4;stroke-linecap:square;stroke-linejoin:bevel;stroke-miterlimit:4;stroke-dasharray:none;stroke-dashoffset:0;stroke-opacity:1" />
</svg>
